X: 9545
T: Dashing White Sergeant, The
R: polka
M: 2/4
K: Dmajor
F>E|:DD D/E/F/G/|AA Af/e/|dB AF|BE E/G/F/E/|
DD D/E/F/G/|AA A>f|e>d cB|1 AA/B/ A/G/F/E/:|2 A2 AE||
AA/B/ cc/d/|ee/c/ A2|BB/c/ dd/e/|f/g/f/d/ B2|
cA/A/ dA/A/|eA/A/ fA/A/|gf ed|cB AG|
Fd d/c/d/e/|dA A2|Be e/d/e/f/|eB Bd|
Ad d/c/d/e/|fd d/c/d/e/|f2 a2|d4||

